X:1
T:Trip to Maidenhead
M:6/8
L:1/8
B:Thompson's Compleat Collection of 200 Favourite Country Dances, vol. 1 (London, 1757)
Z:Transcribed and edited by Flynn Titford-Mock, 2007
Z:abc's:AK/Fiddler's Companion
K:F
c|A/B/cA FAc|f/g/a/g/f g2c|A/B/cA FAc|a/g/f/g/a g2c|A/B/cA FAc|
f/g/a/g/ g2 f/4g/4a/|ge/f/g fed|cG/F/E/D/ C2::c|A/B/cA c/d/_ec|d/f/_e/d/c B2d|
=B/c/dB d/e/fd|eg/f/e/d/ c2g|a/g/fb g/f/ea|f/e/dg edc|dg/a/b abg|(f3 f2):||
